assets/img/braze_icons/perspective-02.svg

<svg fill="none" height="24" viewBox="0 0 24 24" width="24" xmlns="http://www.w3.org/2000/svg"><path clip-rule="evenodd" d="m7.06881 1.87988 11.67489 2.59444c.4193.09314.7852.17444 1.0859.26484.3206.09636.6322.22093.924.43118.4415.31809.7882.75028 1.003 1.25029.1419.3305.1959.66163.2204.99551.023.3132.023.68807.023 1.11752v6.93284c0 .4295 0 .8044-.023 1.1176-.0245.3338-.0785.665-.2204.9955-.2148.5-.5615.9322-1.003 1.2503-.2918.2102-.6034.3348-.924.4311-.3007.0904-.6667.1718-1.086.2649l-11.67474 2.5944c-.62971.14-1.16525.259-1.60737.3172-.46007.0606-.93097.0733-1.39998-.0812-.68721-.2263-1.26947-.6934-1.6395-1.3152-.25253-.4243-.34237-.8867-.383-1.349-.03904-.4442-.03903-.9928-.03901-1.6378v-12.10837c-.00002-.64503-.00003-1.19365.03901-1.63785.04063-.46226.13047-.92469.383-1.34902.37003-.62174.95229-1.08882 1.6395-1.31516.46901-.15447.93991-.14185 1.39998-.08124.44211.05825.97763.17727 1.60732.31722zm1.93119 9.12012h-5v-5.01073c0-.70019.00091-1.16.03133-1.50607.0297-.33794.08054-.45289.10934-.50129.12335-.20725.31743-.36294.5465-.43839.0535-.01762.17674-.04231.51308.00201.34443.04538.79348.14424 1.477.29613l2.32275.51617zm2 2v6.1979l4-.8889v-5.309zm9-2h-3v-4.86439l1.2772.28383c.4613.1025.7548.16835.9767.23507.2099.06309.2888.1084.3306.13857.1472.10603.2628.25009.3344.41676.0203.04742.0474.13422.0635.35279.017.23116.0176.53192.0176 1.00442z" fill="#801ed7" fill-rule="evenodd"/></svg>

<svg width="24" height="24" viewBox="0 0 24 24" fill="none" xmlns="http://www.w3.org/2000/svg">
<path fill-rule="evenodd" clip-rule="evenodd" d="M7.06881 1.87988L18.7437 4.47432C19.163 4.56746 19.5289 4.64876 19.8296 4.73916C20.1502 4.83552 20.4618 4.96009 20.7536 5.17034C21.1951 5.48843 21.5418 5.92062 21.7566 6.42063C21.8985 6.75113 21.9525 7.08226 21.977 7.41614C22 7.72934 22 8.10421 22 8.53366V15.4665C22 15.896 22 16.2709 21.977 16.5841C21.9525 16.9179 21.8985 17.2491 21.7566 17.5796C21.5418 18.0796 21.1951 18.5118 20.7536 18.8299C20.4618 19.0401 20.1502 19.1647 19.8296 19.261C19.5289 19.3514 19.1629 19.4328 18.7436 19.5259L7.06886 22.1203C6.43915 22.2603 5.90361 22.3793 5.46149 22.4375C5.00142 22.4981 4.53052 22.5108 4.06151 22.3563C3.3743 22.13 2.79204 21.6629 2.42201 21.0411C2.16948 20.6168 2.07964 20.1544 2.03901 19.6921C1.99997 19.2479 1.99998 18.6993 2 18.0543V5.94593C1.99998 5.3009 1.99997 4.75228 2.03901 4.30808C2.07964 3.84582 2.16948 3.38339 2.42201 2.95906C2.79204 2.33732 3.3743 1.87024 4.06151 1.6439C4.53052 1.48943 5.00142 1.50205 5.46149 1.56266C5.9036 1.62091 6.43912 1.73993 7.06881 1.87988ZM9 11H4V5.98927C4 5.28908 4.00091 4.82927 4.03133 4.4832C4.06103 4.14526 4.11187 4.03031 4.14067 3.98191C4.26402 3.77466 4.4581 3.61897 4.68717 3.54352C4.74067 3.5259 4.86391 3.50121 5.20025 3.54553C5.54468 3.59091 5.99373 3.68977 6.67725 3.84166L9 4.35783L9 11ZM11 13V19.1979L15 18.309V13H11ZM20 11H17V6.13561L18.2772 6.41944C18.7385 6.52194 19.032 6.58779 19.2539 6.65451C19.4638 6.7176 19.5427 6.76291 19.5845 6.79308C19.7317 6.89911 19.8473 7.04317 19.9189 7.20984C19.9392 7.25726 19.9663 7.34406 19.9824 7.56263C19.9994 7.79379 20 8.09455 20 8.56705V11Z" fill="#801ED7"/>
</svg>
